icons/circle/48/yagf.svg

<svg xmlns="http://www.w3.org/2000/svg" viewBox="0 0 48 48">
 <defs>
  <linearGradient id="linearGradient3845" y1="47" x2="0" y2="1" gradientUnits="userSpaceOnUse">
   <stop style="stop-color:#d2bd24;stop-opacity:1"/>
   <stop offset="1" style="stop-color:#dbc62f;stop-opacity:1"/>
  </linearGradient>
 </defs>
 <g>
  <path d="m 36.31 5 c 5.859 4.062 9.688 10.831 9.688 18.5 c 0 12.426 -10.07 22.5 -22.5 22.5 c -7.669 0 -14.438 -3.828 -18.5 -9.688 c 1.037 1.822 2.306 3.499 3.781 4.969 c 4.085 3.712 9.514 5.969 15.469 5.969 c 12.703 0 23 -10.298 23 -23 c 0 -5.954 -2.256 -11.384 -5.969 -15.469 c -1.469 -1.475 -3.147 -2.744 -4.969 -3.781 z m 4.969 3.781 c 3.854 4.113 6.219 9.637 6.219 15.719 c 0 12.703 -10.297 23 -23 23 c -6.081 0 -11.606 -2.364 -15.719 -6.219 c 4.16 4.144 9.883 6.719 16.219 6.719 c 12.703 0 23 -10.298 23 -23 c 0 -6.335 -2.575 -12.06 -6.719 -16.219 z" style="opacity:0.05"/>
  <path d="m 41.28 8.781 c 3.712 4.085 5.969 9.514 5.969 15.469 c 0 12.703 -10.297 23 -23 23 c -5.954 0 -11.384 -2.256 -15.469 -5.969 c 4.113 3.854 9.637 6.219 15.719 6.219 c 12.703 0 23 -10.298 23 -23 c 0 -6.081 -2.364 -11.606 -6.219 -15.719 z" style="opacity:0.1"/>
  <path d="m 31.25 2.375 c 8.615 3.154 14.75 11.417 14.75 21.13 c 0 12.426 -10.07 22.5 -22.5 22.5 c -9.708 0 -17.971 -6.135 -21.12 -14.75 a 23 23 0 0 0 44.875 -7 a 23 23 0 0 0 -16 -21.875 z" style="opacity:0.2"/>
 </g>
 <g>
  <path d="m 24 1 c 12.703 0 23 10.297 23 23 c 0 12.703 -10.297 23 -23 23 -12.703 0 -23 -10.297 -23 -23 0 -12.703 10.297 -23 23 -23 z" style="fill:url(#linearGradient3845);fill-opacity:1"/>
 </g>
 <g>
  <path d="m 40.03 7.531 c 3.712 4.084 5.969 9.514 5.969 15.469 0 12.703 -10.297 23 -23 23 c -5.954 0 -11.384 -2.256 -15.469 -5.969 4.178 4.291 10.01 6.969 16.469 6.969 c 12.703 0 23 -10.298 23 -23 0 -6.462 -2.677 -12.291 -6.969 -16.469 z" style="opacity:0.1"/>
 </g>
 <g>
  <g>
   <g>
    <g>
     <path d="m 38 12 -26 0 0 26 26 0" style="fill:#000;opacity:0.1;fill-opacity:1;stroke:none;fill-rule:evenodd"/>
     <path d="m 37 11 -26 0 0 26 26 0" style="fill:#f5efef;fill-opacity:1;stroke:none;fill-rule:evenodd"/>
    </g>
    <g>
     <g>
      <g transform="translate(0,-0.004)">
       <g>
        <g transform="translate(1,1)">
         <g style="opacity:0.1">
          <!-- color: #cccdb6 -->
         </g>
        </g>
       </g>
      </g>
     </g>
    </g>
   </g>
  </g>
  <path d="m 12 13 24 0 0 1 -24 0 z" style="fill:#bfbfbf;fill-opacity:0.853;stroke:none;fill-rule:nonzero"/>
  <path d="m 12 15 24 0 0 1 -24 0 z" style="fill:#bfbfbf;fill-opacity:0.853;stroke:none;fill-rule:nonzero"/>
  <path d="m 12 17 24 0 0 1 -24 0 z" style="fill:#bfbfbf;fill-opacity:0.853;stroke:none;fill-rule:nonzero"/>
  <path d="m 12 19 24 0 0 1 -24 0 z" style="fill:#bfbfbf;fill-opacity:0.853;stroke:none;fill-rule:nonzero"/>
  <path d="m 12 21 24 0 0 1 -24 0 z" style="fill:#bfbfbf;fill-opacity:0.853;stroke:none;fill-rule:nonzero"/>
  <path d="m 12 23 24 0 0 1 -24 0 z" style="fill:#bfbfbf;fill-opacity:0.853;stroke:none;fill-rule:nonzero"/>
  <path d="m 12 25 24 0 0 1 -24 0 z" style="fill:#bfbfbf;fill-opacity:0.853;stroke:none;fill-rule:nonzero"/>
  <path d="m 12 27 24 0 0 1 -24 0 z" style="fill:#bfbfbf;fill-opacity:0.853;stroke:none;fill-rule:nonzero"/>
  <path d="m 12 29 24 0 0 1 -24 0 z" style="fill:#bfbfbf;fill-opacity:0.853;stroke:none;fill-rule:nonzero"/>
  <path d="m 12 31 24 0 0 1 -24 0 z" style="fill:#bfbfbf;fill-opacity:0.853;stroke:none;fill-rule:nonzero"/>
  <path d="m 12 33 24 0 0 1 -24 0 z" style="fill:#bfbfbf;fill-opacity:0.853;stroke:none;fill-rule:nonzero"/>
 </g>
 <g>
  <path d="m 29 12 a 9 9 0 0 0 -9 9 9 9 0 0 0 1.928 5.551 l -4.682 4.684 -0.313 -0.313 L 12 35.855 13.145 37 l 2 0 3.934 -3.934 L 18.75 32.738 23.424 28.06 A 9 9 0 0 0 29 30 9 9 0 0 0 37 25.12 l 0 -8.223 A 9 9 0 0 0 29 12 m 0 2 a 7 7 0 0 1 7 7 7 7 0 0 1 -7 7 7 7 0 0 1 -7 -7 7 7 0 0 1 7 -7 z" style="fill:#000;opacity:0.1;fill-opacity:1;stroke:none;fill-rule:evenodd"/>
  <path d="m 36.602 19.898 c 0 4.697 -3.805 8.5 -8.5 8.5 -4.699 0 -8.504 -3.803 -8.5 -8.5 -0.004 -4.693 3.801 -8.5 8.5 -8.5 4.695 0 8.5 3.807 8.5 8.5 m 0 0" style="fill:#f5efef;fill-opacity:1;stroke:none;fill-rule:nonzero"/>
  <path d="m 22.622 26.866 -1.504 -1.504 -4.934 4.934 1.504 1.504" style="fill:#d24c37;fill-opacity:1;stroke:none;fill-rule:nonzero"/>
  <path d="M 18.079,32.066 15.934,29.921 11,34.855 13.145,37" style="fill:#222b30;fill-opacity:1;stroke:none;fill-rule:nonzero"/>
  <path d="M 30.801,24 30,22 26,22 25.199,24 23,24 l 4,-10 2,0 4,10 -2.199,0 M 28,17 l -1.2,3 2.4,0" style="fill:#606060;fill-opacity:1;stroke:none"/>
  <path d="M 28.5 11.5 A 9 9 0 0 0 19.701 18.654 C 19.642 19.06 19.601 19.475 19.602 19.898 C 19.598 24.595 23.403 28.398 28.1 28.398 C 32.797 28.398 36.602 24.595 36.602 19.898 C 36.602 15.93 33.876 12.603 30.2 11.668 A 9 9 0 0 0 28.5 11.5 z M 28.5 13.5 A 7 7 0 0 1 35.5 20.5 A 7 7 0 0 1 28.5 27.5 A 7 7 0 0 1 21.5 20.5 A 7 7 0 0 1 28.5 13.5 z" style="fill:#000;opacity:0.1;fill-opacity:1;stroke:none"/>
  <path d="M 28 11 A 9 9 0 0 0 19 20 A 9 9 0 0 0 28 29 A 9 9 0 0 0 37 20 A 9 9 0 0 0 28 11 z M 28 13 A 7 7 0 0 1 35 20 A 7 7 0 0 1 28 27 A 7 7 0 0 1 21 20 A 7 7 0 0 1 28 13 z" style="fill:#b19b9b;opacity:1;fill-opacity:1;stroke:none"/>
 </g>
</svg>

<svg xmlns="http://www.w3.org/2000/svg" viewBox="0 0 48 48">
  <defs>
    <linearGradient id="a" y1="47" x2="0" y2="1" gradientUnits="userSpaceOnUse">
      <stop stop-color="#d2bd24"/>
      <stop offset="1" stop-color="#dbc62f"/>
    </linearGradient>
  </defs>
  <path d="M36.31 5c5.859 4.062 9.688 10.831 9.688 18.5 0 12.426-10.07 22.5-22.5 22.5-7.669 0-14.438-3.828-18.5-9.688a23.24 23.24 0 0 0 3.781 4.969 22.923 22.923 0 0 0 15.469 5.969c12.703 0 23-10.298 23-23a22.92 22.92 0 0 0-5.969-15.469A23.216 23.216 0 0 0 36.31 5zm4.969 3.781A22.911 22.911 0 0 1 47.498 24.5c0 12.703-10.297 23-23 23a22.909 22.909 0 0 1-15.719-6.219C12.939 45.425 18.662 48 24.998 48c12.703 0 23-10.298 23-23 0-6.335-2.575-12.06-6.719-16.219z" opacity=".05"/>
  <path d="M41.28 8.781a22.923 22.923 0 0 1 5.969 15.469c0 12.703-10.297 23-23 23A22.92 22.92 0 0 1 8.78 41.281 22.911 22.911 0 0 0 24.499 47.5c12.703 0 23-10.298 23-23A22.909 22.909 0 0 0 41.28 8.781z" opacity=".1"/>
  <path d="M31.25 2.375C39.865 5.529 46 13.792 46 23.505c0 12.426-10.07 22.5-22.5 22.5-9.708 0-17.971-6.135-21.12-14.75a23 23 0 0 0 44.875-7 23 23 0 0 0-16-21.875z" opacity=".2"/>
  <path d="M24 1c12.703 0 23 10.297 23 23S36.703 47 24 47 1 36.703 1 24 11.297 1 24 1z" fill="url(#a)"/>
  <path d="M40.03 7.531A22.922 22.922 0 0 1 45.999 23c0 12.703-10.297 23-23 23A22.92 22.92 0 0 1 7.53 40.031C11.708 44.322 17.54 47 23.999 47c12.703 0 23-10.298 23-23 0-6.462-2.677-12.291-6.969-16.469z" opacity=".1"/>
  <g>
    <g fill-rule="evenodd">
      <path d="M38 12H12v26h26" opacity=".1"/>
      <path d="M37 11H11v26h26" fill="#f5efef"/>
    </g>
    <path d="M12 13h24v1H12zM12 15h24v1H12zM12 17h24v1H12zM12 19h24v1H12zM12 21h24v1H12zM12 23h24v1H12zM12 25h24v1H12zM12 27h24v1H12zM12 29h24v1H12zM12 31h24v1H12zM12 33h24v1H12z" fill="#bfbfbf" fill-opacity=".853"/>
  </g>
  <g>
    <path d="M29 12a9 9 0 0 0-9 9 9 9 0 0 0 1.928 5.551l-4.682 4.684-.313-.313L12 35.855 13.145 37h2l3.934-3.934-.329-.328 4.674-4.678A9 9 0 0 0 29 30a9 9 0 0 0 8-4.88v-8.223A9 9 0 0 0 29 12m0 2a7 7 0 0 1 7 7 7 7 0 0 1-7 7 7 7 0 0 1-7-7 7 7 0 0 1 7-7z" opacity=".1" fill-rule="evenodd"/>
    <path d="M36.602 19.898c0 4.697-3.805 8.5-8.5 8.5-4.699 0-8.504-3.803-8.5-8.5-.004-4.693 3.801-8.5 8.5-8.5a8.5 8.5 0 0 1 8.5 8.5m0 0" fill="#f5efef"/>
    <path d="M22.622 26.866l-1.504-1.504-4.934 4.934 1.504 1.504" fill="#d24c37"/>
    <path d="M18.079 32.066l-2.145-2.145L11 34.855 13.145 37" fill="#222b30"/>
    <path d="M30.801 24L30 22h-4l-.801 2H23l4-10h2l4 10h-2.199M28 17l-1.2 3h2.4" fill="#606060"/>
    <path d="M28.5 11.5a9 9 0 0 0-8.799 7.154c-.059.406-.1.821-.099 1.244a8.492 8.492 0 0 0 8.498 8.5 8.498 8.498 0 0 0 8.502-8.5c0-3.968-2.726-7.295-6.402-8.23a9 9 0 0 0-1.7-.168zm0 2a7 7 0 0 1 7 7 7 7 0 0 1-7 7 7 7 0 0 1-7-7 7 7 0 0 1 7-7z" opacity=".1"/>
    <path d="M28 11a9 9 0 0 0-9 9 9 9 0 0 0 9 9 9 9 0 0 0 9-9 9 9 0 0 0-9-9zm0 2a7 7 0 0 1 7 7 7 7 0 0 1-7 7 7 7 0 0 1-7-7 7 7 0 0 1 7-7z" fill="#b19b9b"/>
  </g>
</svg>
